static/images/logo.svg

<svg xmlns="http://www.w3.org/2000/svg" width="32" height="32" viewBox="0 0 32 32">
  <path fill="#42A5F5" fill-rule="evenodd" d="M14 7h4v4h-4V7zm2 25c8.837 0 16-7.163 16-16S24.837 0 16 0 0 7.163 0 16s7.163 16 16 16zM9 7h4v4H9V7zm0 5h4v4H9v-4zm0 5h4v4H9v-4zM19 7h4v4h-4V7zm0 5h4v4h-4v-4zm0 5h4v4h-4v-4zm-5 0h4v4h-4v-4zm-5 5h4v4H9v-4z"/>
</svg>

<?xml version="1.0" encoding="UTF-8" standalone="no"?>
<svg width="32px" height="32px" viewBox="0 0 32 32" version="1.1" xmlns="http://www.w3.org/2000/svg" xmlns:xlink="http://www.w3.org/1999/xlink" xmlns:sketch="http://www.bohemiancoding.com/sketch/ns">
    <!-- Generator: Sketch 3.3.3 (12081) - http://www.bohemiancoding.com/sketch -->
    <title>Icon negative</title>
    <desc>Created with Sketch.</desc>
    <defs></defs>
    <g id="Page-1" stroke="none" stroke-width="1" fill="none" fill-rule="evenodd" sketch:type="MSPage">
        <g id="Icon-negative" sketch:type="MSArtboardGroup" fill="#42A5F5">
            <path d="M14,7 L18,7 L18,11 L14,11 L14,7 Z M16,32 C24.836556,32 32,24.836556 32,16 C32,7.163444 24.836556,0 16,0 C7.163444,0 0,7.163444 0,16 C0,24.836556 7.163444,32 16,32 Z M9,7 L13,7 L13,11 L9,11 L9,7 Z M9,12 L13,12 L13,16 L9,16 L9,12 Z M9,17 L13,17 L13,21 L9,21 L9,17 Z M19,7 L23,7 L23,11 L19,11 L19,7 Z M19,12 L23,12 L23,16 L19,16 L19,12 Z M19,17 L23,17 L23,21 L19,21 L19,17 Z M14,17 L18,17 L18,21 L14,21 L14,17 Z M9,22 L13,22 L13,26 L9,26 L9,22 Z" id="Oval-1" sketch:type="MSShapeGroup"></path>
        </g>
    </g>
</svg>
